source/images/glyphs/twitter.svg

<?xml version="1.0" encoding="UTF-8"?>
<svg width="32px" height="32px" viewBox="0 0 32 32" version="1.1" xmlns="http://www.w3.org/2000/svg" xmlns:xlink="http://www.w3.org/1999/xlink">
    <!-- Generator: Sketch 52 (66869) - http://www.bohemiancoding.com/sketch -->
    <title>_Icons / 32px - Social  / Twitter 2</title>
    <desc>Created with Sketch.</desc>
    <g id="_Icons-/-32px---Social--/-Twitter-2" stroke="none" stroke-width="1" fill="none" fill-rule="evenodd">
        <path d="M10.2378952,28.7175836 C21.9357743,28.7175836 28.3367347,19.0169033 28.3367347,10.618744 C28.3367347,10.3458349 28.3367347,10.0729257 28.3243297,9.80001656 C29.5648259,8.9068593 30.6440576,7.77800775 31.5,6.50029667 C30.3587435,7.00890011 29.1306523,7.34383409 27.8405362,7.50509859 C29.1554622,6.72358599 30.1602641,5.47068483 30.6440576,3.98208939 C29.4159664,4.71398214 28.0514206,5.23499055 26.60004,5.52030467 C25.4339736,4.27980848 23.7841136,3.51070083 21.9605842,3.51070083 C18.44998,3.51070083 15.5968387,6.36384209 15.5968387,9.87444633 C15.5968387,10.3706448 15.6588635,10.8544383 15.7581032,11.3258269 C10.4735894,11.0653227 5.78451381,8.52230547 2.64605842,4.67676726 C2.1002401,5.61954437 1.79011605,6.71118102 1.79011605,7.87724745 C1.79011605,10.0853307 2.91896759,12.0329097 4.61844738,13.1741662 C3.57643057,13.1369513 2.59643858,12.8516372 1.7404962,12.3802487 C1.7404962,12.4050586 1.7404962,12.4298685 1.7404962,12.4670834 C1.7404962,15.543514 3.93617447,18.1237461 6.83893557,18.7067793 C6.30552221,18.8556388 5.74729892,18.9300686 5.16426571,18.9300686 C4.75490196,18.9300686 4.35794318,18.8928537 3.97338936,18.8184239 C4.77971188,21.3490362 7.13665466,23.1849705 9.91536615,23.2345904 C7.73209284,24.9464751 4.99059624,25.963682 2.01340536,25.963682 C1.50480192,25.963682 0.996198479,25.9388721 0.5,25.8768473 C3.30352141,27.6631618 6.65286114,28.7175836 10.2378952,28.7175836" id="Icon" fill="#FFFFFF"></path>
    </g>
</svg>

<svg width="32" height="32" xmlns="http://www.w3.org/2000/svg"><path d="M10.238 28.718c11.698 0 18.099-9.701 18.099-18.1 0-.272 0-.545-.013-.818A12.96 12.96 0 0 0 31.5 6.5c-1.141.509-2.37.844-3.66 1.005a6.4 6.4 0 0 0 2.804-3.523A12.653 12.653 0 0 1 26.6 5.52a6.349 6.349 0 0 0-4.64-2.01 6.369 6.369 0 0 0-6.363 6.364c0 .497.062.98.161 1.452-5.284-.26-9.973-2.804-13.112-6.65a6.362 6.362 0 0 0-.856 3.201 6.378 6.378 0 0 0 2.828 5.297 6.434 6.434 0 0 1-2.878-.794v.087a6.374 6.374 0 0 0 5.099 6.24 6.202 6.202 0 0 1-1.675.223c-.41 0-.806-.037-1.19-.112a6.36 6.36 0 0 0 5.941 4.417 12.758 12.758 0 0 1-7.902 2.729c-.508 0-1.017-.025-1.513-.087a18.094 18.094 0 0 0 9.738 2.84" fill="#000" fill-rule="evenodd"/></svg>
